src/24/panel/xfce4-fsguard-plugin-urgent.svg

<svg xmlns="http://www.w3.org/2000/svg" width="24" height="24" version="1.1">
 <defs>
  <style id="current-color-scheme" type="text/css">
   .ColorScheme-Text { color:#dfdfdf; } .ColorScheme-Highlight { color:#4285f4; }
  </style>
 </defs>
 <g transform="translate(1,1)">
  <path style="fill:currentColor" class="ColorScheme-Text" d="M 6 4 C 5.446 4 5 4.446 5 5 L 5 19 C 5 19.554 5.446 20 6 20 L 13.005859 20 C 13.005567 19.976987 12.999517 19.95472 13 19.931641 C 13.006994 19.610574 13.085278 19.29431 13.234375 19.005859 L 15.027344 15.529297 L 16.820312 12.050781 C 17.120153 11.469696 17.705995 11.043093 18.390625 11.001953 L 18.392578 11.001953 L 18.394531 11.001953 C 18.461249 10.998153 18.528973 10.998353 18.595703 11.001953 C 18.736193 11.009353 18.869191 11.044103 19 11.082031 L 19 5 C 19 4.446 18.554 4 18 4 L 6 4 z M 12 7 C 14.209139 7 16 8.790861 16 11 C 16 13.209139 14.209139 15 12 15 L 8 15 L 8 11 C 8 8.790861 9.790861 7 12 7 z M 12 9 C 10.89543 9 10 9.8954305 10 11 C 10 12.104569 10.895431 13 12 13 C 13.104569 13 14 12.104569 14 11 C 14 9.8954305 13.104569 9 12 9 z" transform="translate(-1,-1)"/>
 </g>
 <path style="fill:currentColor" class="ColorScheme-Highlight" d="M 18.451172 12 A 0.91368861 1.0229285 0 0 0 17.708984 12.509766 L 15.916016 15.988281 L 14.123047 19.464844 A 0.91368861 1.0229285 0 0 0 14 19.953125 A 0.91368861 1.0229285 0 0 0 14.914062 21 L 18.5 21 L 22.085938 21 A 0.91368861 1.0229285 0 0 0 22.876953 19.464844 L 21.083984 15.988281 L 19.291016 12.509766 A 0.91368861 1.0229285 0 0 0 18.542969 12 A 0.91368861 1.0229285 0 0 0 18.451172 12 z M 18 14 L 19 14 L 19 18 L 18 18 L 18 14 z M 18 19 L 19 19 L 19 20 L 18 20 L 18 19 z"/>
</svg>

<svg xmlns="http://www.w3.org/2000/svg" width="24" height="24"><defs><style id="current-color-scheme" type="text/css">.ColorScheme-Text{color:#dfdfdf;}.ColorScheme-Highlight{color:#5294e2;}</style></defs><path d="M6 4c-.554 0-1 .446-1 1v14c0 .554.446 1 1 1h7.006c0-.023-.006-.045-.006-.068.007-.321.085-.638.234-.926l1.793-3.477 1.793-3.478c.3-.581.886-1.008 1.57-1.049h.005c.066-.004.134-.004.2 0 .141.007.274.042.405.08V5c0-.554-.446-1-1-1H6zm6 3a4 4 0 1 1 0 8H8v-4a4 4 0 0 1 4-4zm0 2a2 2 0 1 0 0 4 2 2 0 0 0 0-4z" fill="currentColor" class="ColorScheme-Text"/><path d="M18.451 12a.914 1.023 0 0 0-.742.51l-1.793 3.478-1.793 3.477a.914 1.023 0 0 0-.123.488.914 1.023 0 0 0 .914 1.047h7.172a.914 1.023 0 0 0 .791-1.535l-1.793-3.477-1.793-3.478a.914 1.023 0 0 0-.748-.51.914 1.023 0 0 0-.092 0zM18 14h1v4h-1v-4zm0 5h1v1h-1v-1z" fill="currentColor" class="ColorScheme-Highlight"/></svg>
